X:2880
T:Gr\aat ej moder
T:Mother don't cry
C:anon.
O:Finland
Z:Transcribed by Frank Nordberg - http://www.musicaviva.com
F:http://abc.musicaviva.com/tunes/finland/graat-ej-moder.abc
M:2/4
L:1/8
K:Am
"Am"EA AA|"E"A^G G2|"C"cB cd|"C"e2 "E"B2|
"Am"c>d ec|"E"B^G "Am"AB|"Am"cB "E"B^G|"Am"A2 A2|]
W:
W:
W:  From Musica Viva - http://www.musicaviva.com
W:  the Internet center for free sheet music downloads.



